app/assets/svg/Logo.svg

<svg xmlns="http://www.w3.org/2000/svg" version="1.1" xmlns:xlink="http://www.w3.org/1999/xlink" xmlns:svgjs="http://svgjs.com/svgjs" viewBox="0 0 512 512" xml:space="preserve" class=""><g><path d="M342.383 239.352c-23.04-35.942-62.278-57.403-104.965-57.403s-81.926 21.461-104.961 57.403l-55.516 86.605c-9.21 14.367-13.46 30.969-12.293 47.996 1.168 17.031 7.649 32.89 18.739 45.875 11.097 12.973 25.761 21.84 42.406 25.645 16.644 3.804 33.707 2.18 49.34-4.692l1.047-.465c39.336-16.945 84.285-16.789 123.52.465 10.12 4.45 20.843 6.7 31.663 6.7 5.883 0 11.801-.668 17.664-2.004 16.645-3.801 31.309-12.668 42.41-25.645 11.094-12.973 17.579-28.836 18.75-45.871 1.172-17.035-3.078-33.633-12.289-48.008zM91.895 239.238c16.515-6.343 29.062-19.652 35.328-37.476 5.965-16.961 5.476-36.11-1.38-53.922-6.859-17.8-19.335-32.332-35.132-40.922-16.594-9.02-34.824-10.488-51.313-4.133-33.171 12.754-48.394 53.746-33.93 91.399 11.555 29.968 38.505 48.886 65.75 48.886a57.316 57.316 0 0 0 20.677-3.832zM199.613 171.387c41.469 0 75.207-38.438 75.207-85.684C274.82 38.445 241.082 0 199.613 0c-41.465 0-75.199 38.445-75.199 85.703 0 47.246 33.734 85.684 75.2 85.684zM329.496 192.438h.004a61.3 61.3 0 0 0 19.367 3.128c30.242 0 59.715-22.011 70.961-55.84 6.477-19.472 6.05-40.062-1.2-57.972-7.585-18.75-21.644-32.36-39.589-38.324-17.95-5.965-37.36-3.477-54.66 7-16.527 10.007-29.192 26.246-35.66 45.718-13.653 41.079 4.64 84.274 40.777 96.29zM487.875 182.438l-.012-.012c-28.597-21.125-71.367-11.969-95.347 20.422-23.957 32.406-20.211 75.972 8.343 97.113 10.414 7.715 22.72 11.402 35.313 11.402 21.95 0 44.785-11.203 60.05-31.804 23.954-32.407 20.212-75.973-8.347-97.122zm0 0" fill="#000000" data-original="#000000"></path></g></svg>

<svg viewBox="0 0 513 448" fill="none" xmlns="http://www.w3.org/2000/svg">
<path d="M342.384 239.352C319.344 203.41 280.106 181.949 237.419 181.949C194.732 181.949 155.493 203.41 132.458 239.352L76.9416 325.957C67.7316 340.324 63.4816 356.926 64.6486 373.953C65.8166 390.984 72.2976 406.843 83.3876 419.828C94.4846 432.801 109.149 441.668 125.794 445.473C142.438 449.277 159.501 447.653 175.134 440.781L176.181 440.316C215.517 423.371 260.466 423.527 299.701 440.781C309.821 445.231 320.544 447.481 331.364 447.481C337.247 447.481 343.165 446.813 349.028 445.477C365.673 441.676 380.337 432.809 391.438 419.832C402.532 406.859 409.017 390.996 410.188 373.961C411.36 356.926 407.11 340.328 397.899 325.953L342.384 239.352ZM91.8956 239.238C108.411 232.895 120.958 219.586 127.224 201.762C133.189 184.801 132.7 165.652 125.844 147.84C118.985 130.04 106.509 115.508 90.7116 106.918C74.1176 97.898 55.8876 96.43 39.3986 102.785C6.22763 115.539 -8.99537 156.531 5.46863 194.184C17.0236 224.152 43.9736 243.07 71.2186 243.07C78.2883 243.079 85.2986 241.78 91.8956 239.238ZM199.614 171.387C241.083 171.387 274.821 132.949 274.821 85.703C274.821 38.445 241.083 0 199.614 0C158.149 0 124.415 38.445 124.415 85.703C124.415 132.949 158.148 171.387 199.614 171.387ZM329.497 192.438H329.501C335.747 194.514 342.286 195.57 348.868 195.566C379.11 195.566 408.583 173.555 419.829 139.726C426.306 120.254 425.879 99.664 418.629 81.754C411.044 63.004 396.985 49.394 379.04 43.43C361.09 37.465 341.68 39.953 324.38 50.43C307.853 60.437 295.188 76.676 288.72 96.148C275.067 137.227 293.36 180.422 329.497 192.438ZM487.876 182.438L487.864 182.426C459.267 161.301 416.497 170.457 392.517 202.848C368.56 235.254 372.306 278.82 400.86 299.961C411.274 307.676 423.58 311.363 436.173 311.363C458.123 311.363 480.958 300.16 496.223 279.559C520.177 247.152 516.435 203.586 487.876 182.437V182.438Z" fill="black"/>
</svg>
